Icons/com_theronrogers_shareapps.svg

<svg viewBox="0 0 48 48" xmlns:xlink="http://www.w3.org/1999/xlink">
 <defs>
  <linearGradient id="0">
   <stop stop-opacity="0"/>
   <stop offset="1"/>
  </linearGradient>
  <linearGradient xlink:href="#0" id="1" gradientUnits="userSpaceOnUse" gradientTransform="translate(4e-7,-48)" y1="47" x2="0" y2="1"/>
  <clipPath id="2">
   <g transform="translate(0,-1004.3622)">
    <rect rx="4" y="1005.36" x="1" height="46" width="46" fill="#1890d0"/>
   </g>
  </clipPath>
  <clipPath id="3">
   <g transform="translate(0,-1004.3622)">
    <rect rx="4" y="1005.36" x="1" height="46" width="46" fill="#1890d0"/>
   </g>
  </clipPath>
 </defs>
 <g>
  <g transform="translate(0,-1004.3622)">
   <path d="m 5,1006.3622 c -2.216,0 -4,1.784 -4,4 l 0,37.25 c 0,2.216 1.784,4 4,4 l 38,0 c 2.216,0 4,-1.784 4,-4 l 0,-37.25 c 0,-2.216 -1.784,-4 -4,-4 l -38,0 z m -4,41.5 0,0.5 c 0,2.216 1.784,4 4,4 l 38,0 c 2.216,0 4,-1.784 4,-4 l 0,-0.5 c 0,2.216 -1.784,4 -4,4 l -38,0 c -2.216,0 -4,-1.784 -4,-4 z" opacity="0.02"/>
   <path d="m 1,1047.6122 0,0.25 c 0,2.216 1.784,4 4,4 l 38,0 c 2.216,0 4,-1.784 4,-4 l 0,-0.25 c 0,2.216 -1.784,4 -4,4 l -38,0 c -2.216,0 -4,-1.784 -4,-4 z" opacity="0.05"/>
   <rect width="46" height="46" x="1" y="1005.61" rx="4" opacity="0.1"/>
  </g>
 </g>
 <g>
  <g transform="translate(0,-1004.3622)">
   <rect rx="4" y="1005.36" x="1" height="46" width="46" fill="#4fb796"/>
  </g>
 </g>
 <g>
  <rect transform="scale(1,-1)" width="46" height="46" x="1" y="-46.998" rx="4" opacity="0.1" fill="url(#1)"/>
 </g>
 <g>
  <g clip-path="url(#2)">
   <g opacity="0.1">
    <g>
     <path d="M 31.125 11 C 28.433594 11 26.25 13.183594 26.25 15.875 C 26.25 16.078125 26.277344 16.289062 26.300781 16.484375 L 18.277344 20.496094 C 17.398438 19.640625 16.195312 19.125 14.875 19.125 C 12.183594 19.125 10 21.308594 10 24 C 10 26.691406 12.183594 28.875 14.875 28.875 C 16.195312 28.875 17.398438 28.359375 18.277344 27.503906 L 26.300781 31.515625 C 26.273438 31.710938 26.25 31.921875 26.25 32.125 C 26.25 34.816406 28.433594 37 31.125 37 C 33.816406 37 36 34.816406 36 32.125 C 36 29.433594 33.816406 27.25 31.125 27.25 C 29.8125 27.25 28.625 27.777344 27.746094 28.621094 L 19.699219 24.609375 C 19.726562 24.414062 19.75 24.203125 19.75 24 C 19.75 23.796875 19.722656 23.585938 19.699219 23.390625 L 27.746094 19.378906 C 28.625 20.222656 29.8125 20.75 31.125 20.75 C 33.816406 20.75 36 18.566406 36 15.875 C 36 13.183594 33.816406 11 31.125 11 Z M 31.125 11 "/>
    </g>
   </g>
  </g>
 </g>
 <g>
  <g clip-path="url(#3)">
   <g transform="translate(0,-1)">
    <g>
     <path d="M 31.125 11 C 28.433594 11 26.25 13.183594 26.25 15.875 C 26.25 16.078125 26.277344 16.289062 26.300781 16.484375 L 18.277344 20.496094 C 17.398438 19.640625 16.195312 19.125 14.875 19.125 C 12.183594 19.125 10 21.308594 10 24 C 10 26.691406 12.183594 28.875 14.875 28.875 C 16.195312 28.875 17.398438 28.359375 18.277344 27.503906 L 26.300781 31.515625 C 26.273438 31.710938 26.25 31.921875 26.25 32.125 C 26.25 34.816406 28.433594 37 31.125 37 C 33.816406 37 36 34.816406 36 32.125 C 36 29.433594 33.816406 27.25 31.125 27.25 C 29.8125 27.25 28.625 27.777344 27.746094 28.621094 L 19.699219 24.609375 C 19.726562 24.414062 19.75 24.203125 19.75 24 C 19.75 23.796875 19.722656 23.585938 19.699219 23.390625 L 27.746094 19.378906 C 28.625 20.222656 29.8125 20.75 31.125 20.75 C 33.816406 20.75 36 18.566406 36 15.875 C 36 13.183594 33.816406 11 31.125 11 Z M 31.125 11 " fill="#f9f9f9"/>
    </g>
   </g>
  </g>
 </g>
 <g>
  <g transform="translate(0,-1004.3622)">
   <path d="m 1,1043.3622 0,4 c 0,2.216 1.784,4 4,4 l 38,0 c 2.216,0 4,-1.784 4,-4 l 0,-4 c 0,2.216 -1.784,4 -4,4 l -38,0 c -2.216,0 -4,-1.784 -4,-4 z" opacity="0.1"/>
  </g>
 </g>
</svg>

<svg viewBox="0 0 48 48"><defs><linearGradient id="linearGradient3764" x1="1" x2="47" gradientUnits="userSpaceOnUse" gradientTransform="translate(-48.000001,0.00221467)"><stop stop-color="#46ac8c" stop-opacity="1"/><stop offset="1" stop-color="#4fb796" stop-opacity="1"/></linearGradient><clipPath id="clipPath-213579340"><g transform="translate(0,-1004.3622)"><rect rx="4" y="1005.36" x="1" height="46" width="46" fill="#1890d0"/></g></clipPath><clipPath id="clipPath-226316440"><g transform="translate(0,-1004.3622)"><rect rx="4" y="1005.36" x="1" height="46" width="46" fill="#1890d0"/></g></clipPath></defs><g><path d="m 1 43 l 0 0.25 c 0 2.216 1.784 4 4 4 l 38 0 c 2.216 0 4 -1.784 4 -4 l 0 -0.25 c 0 2.216 -1.784 4 -4 4 l -38 0 c -2.216 0 -4 -1.784 -4 -4 z m 0 0.5 l 0 0.5 c 0 2.216 1.784 4 4 4 l 38 0 c 2.216 0 4 -1.784 4 -4 l 0 -0.5 c 0 2.216 -1.784 4 -4 4 l -38 0 c -2.216 0 -4 -1.784 -4 -4 z" opacity="0.02"/><path d="m 1 43.25 l 0 0.25 c 0 2.216 1.784 4 4 4 l 38 0 c 2.216 0 4 -1.784 4 -4 l 0 -0.25 c 0 2.216 -1.784 4 -4 4 l -38 0 c -2.216 0 -4 -1.784 -4 -4 z" opacity="0.05"/><path d="m 1 43 l 0 0.25 c 0 2.216 1.784 4 4 4 l 38 0 c 2.216 0 4 -1.784 4 -4 l 0 -0.25 c 0 2.216 -1.784 4 -4 4 l -38 0 c -2.216 0 -4 -1.784 -4 -4 z" opacity="0.1"/></g><g><rect width="46" height="46" x="-47" y="1" rx="4" transform="matrix(0,-1,1,0,0,0)" fill="url(#linearGradient3764)" fill-opacity="1"/></g><g><g clip-path="url(#clipPath-213579340)"><g opacity="0.1"><!-- color: #4fb796 --><g><path d="m 31.13 11 c -2.691 0 -4.875 2.184 -4.875 4.875 c 0 0.203 0.027 0.414 0.051 0.609 l -8.02 4.01 c -0.879 -0.855 -2.082 -1.371 -3.402 -1.371 c -2.691 0 -4.875 2.184 -4.875 4.875 c 0 2.691 2.184 4.875 4.875 4.875 c 1.32 0 2.523 -0.516 3.402 -1.371 l 8.02 4.01 c -0.027 0.195 -0.051 0.406 -0.051 0.609 c 0 2.691 2.184 4.875 4.875 4.875 c 2.691 0 4.875 -2.184 4.875 -4.875 c 0 -2.691 -2.184 -4.875 -4.875 -4.875 c -1.313 0 -2.5 0.527 -3.379 1.371 l -8.05 -4.01 c 0.027 -0.195 0.051 -0.406 0.051 -0.609 c 0 -0.203 -0.027 -0.414 -0.051 -0.609 l 8.05 -4.01 c 0.879 0.844 2.066 1.371 3.379 1.371 c 2.691 0 4.875 -2.184 4.875 -4.875 c 0 -2.691 -2.184 -4.875 -4.875 -4.875 m 0 0" fill="#000"/></g></g></g></g><g><g clip-path="url(#clipPath-226316440)"><g transform="translate(0,-1)"><!-- color: #4fb796 --><g><path d="m 31.13 11 c -2.691 0 -4.875 2.184 -4.875 4.875 c 0 0.203 0.027 0.414 0.051 0.609 l -8.02 4.01 c -0.879 -0.855 -2.082 -1.371 -3.402 -1.371 c -2.691 0 -4.875 2.184 -4.875 4.875 c 0 2.691 2.184 4.875 4.875 4.875 c 1.32 0 2.523 -0.516 3.402 -1.371 l 8.02 4.01 c -0.027 0.195 -0.051 0.406 -0.051 0.609 c 0 2.691 2.184 4.875 4.875 4.875 c 2.691 0 4.875 -2.184 4.875 -4.875 c 0 -2.691 -2.184 -4.875 -4.875 -4.875 c -1.313 0 -2.5 0.527 -3.379 1.371 l -8.05 -4.01 c 0.027 -0.195 0.051 -0.406 0.051 -0.609 c 0 -0.203 -0.027 -0.414 -0.051 -0.609 l 8.05 -4.01 c 0.879 0.844 2.066 1.371 3.379 1.371 c 2.691 0 4.875 -2.184 4.875 -4.875 c 0 -2.691 -2.184 -4.875 -4.875 -4.875 m 0 0" fill="#f9f9f9"/></g></g></g></g><g><g transform="translate(0,-1004.3622)"><path d="m 1 1043.36 0 4 c 0 2.216 1.784 4 4 4 l 38 0 c 2.216 0 4 -1.784 4 -4 l 0 -4 c 0 2.216 -1.784 4 -4 4 l -38 0 c -2.216 0 -4 -1.784 -4 -4 z" opacity="0.1"/></g></g></svg>
